X:1
T:Great: Eastern -- Reel
R:reel
C:CLEM TITUS.
N: 348
B:Ryan's Mammoth Collection
Z: Contributed by Ray Davies,  ray:davies99.freeserve.co.uk
M:2/4
L:1/16
K:D
uA,2|\
v.D2vFuE DFAc | dcdf ecAF | GBFG F"4"ADF | GFED CEA,C |
 .D2vFuE DFAc | dcdf ecAF | GBEG F"4"ADF | EDCE D2 :|
|:uA,2|\
vA,B,CD EFGE | FDEF GABc | dcdA cdef | gfge dcBA |
defd c"4"eAc | dcdB AFDF | GBDG FADF | EDCE D2 :|
